X:0087
T:McDonalds Quick Step.
N:Flora MacDonald's Reel in later sources
M:2/4
L:1/8
Q:1/2=88
I: :: ::
Z:Jack Campin * www.campin.me.uk * 2009
K:D
F|E/E/E EF|BEEF|E/E/E EF|dFDF|E/E/E EF|EFGA|B/c/d AG|FDD:|
F|Eeed    |eEEF|Eeec    |dDDF|Eeed    |BcdB|e/f/g fe|dDD:|
<end>
<start>
